X: 053
T: The Honey Moon
R: reel
M: C|
L: 1/8
Z: 2012 John Chambers <jc:trillian.mit.edu>
B: J. Anderson "Budget of Strathspeys, Reels and Country Dances" (Early 1800s) p.5 #3
F: http://imslp.org/wiki/Anderson%27s_Budget_of_Strathspeys,_Reels_and_Country_Dances_(Various)
K: D
A |\
(Ad).d.d (df).f.a | gfed (ce)A2 | (Ad).d.d (df).f.a | gfge d2d :||: f |
(dA)A2 (Bc)d2 | AFED (DE)E2 | (DA).A.A (.Bc).d.e | fgef d2d :|

%%sep 2 1 500
%%sep 1 1 500

